assets/icons/custom/custom68.svg

<?xml version="1.0"?><svg xmlns="http://www.w3.org/2000/svg" width="100" height="100" viewBox="0 0 100 100"><path fill="#fff" d="m50 20c-16.5 0-30 13.5-30 30s13.5 30 30 30 30-13.5 30-30-13.5-30-30-30z m23.8 27h-7.9c-0.3-7.1-1.9-13.3-4.3-18 6.6 3.7 11.2 10.3 12.2 18z m-26.8-19.7v19.7h-6.9c0.5-9.4 3.5-16.8 6.9-19.7z m0 25.7v19.7c-3.4-2.9-6.4-10.3-6.9-19.7h6.9z m6 19.7v-19.7h6.9c-0.5 9.4-3.5 16.8-6.9 19.7z m0-25.7v-19.7c3.4 2.9 6.4 10.3 6.9 19.7h-6.9z m-14.6-18c-2.4 4.7-3.9 10.9-4.3 18h-7.9c1-7.7 5.6-14.3 12.2-18z m-12.2 24h7.9c0.3 7.1 1.9 13.3 4.3 18-6.6-3.7-11.2-10.3-12.2-18z m35.4 18c2.4-4.7 3.9-10.9 4.3-18h7.9c-1 7.7-5.6 14.3-12.2 18z"></path></svg>

<svg xmlns="http://www.w3.org/2000/svg" x="0px" y="0px"
	 width="100px" height="100px" viewBox="0 0 100 100" enable-background="new 0 0 100 100" xml:space="preserve">
<path fill="#FFFFFF" d="M50,20c-16.5,0-30,13.5-30,30s13.5,30,30,30s30-13.5,30-30S66.5,20,50,20z M73.8,47H65.9
	C65.6,39.9,64,33.7,61.6,29C68.2,32.7,72.8,39.3,73.8,47z M47,27.3V47h-6.9C40.6,37.6,43.6,30.2,47,27.3z M47,53v19.7
	c-3.4-2.9-6.4-10.3-6.9-19.7H47z M53,72.7V53h6.9C59.4,62.4,56.4,69.8,53,72.7z M53,47V27.3c3.4,2.9,6.4,10.3,6.9,19.7H53z M38.4,29
	c-2.4,4.7-3.9,10.9-4.3,18h-7.9C27.2,39.3,31.8,32.7,38.4,29z M26.2,53h7.9c0.3,7.1,1.9,13.3,4.3,18C31.8,67.3,27.2,60.7,26.2,53z
	 M61.6,71c2.4-4.7,3.9-10.9,4.301-18H73.8C72.8,60.7,68.2,67.3,61.6,71z"/>
</svg>
